X: 100434
T: BLINKIN' TIBBIE -- Hornpipe
C: By R. Baillie
R: hornpipe, reel
B: K\"ohler's Violin Repository, v.3, 1885 p.275 #3
F: http://www.archive.org/details/klersviolinrepos03rugg
Z: 2012 John Chambers <jc:trillian.mit.edu>
M: C|
L: 1/8
K: Bb
(ufd) !segno! |\
(c>B)A>B (FD)EF | (Ge)cB (AF)GA | Bbfd Bbge | BfdB AFGA |
(cB)AB (FD)EF | (Ge)cB (AF)GA | BfdB AecA | BdDF B2 "^Fine.":| (uf=e) |
(dc)=Bc | (Ac)FA Bc=eg facb | (ag)^fg (=ec)BG | dc=Bc ACFA |
(dc)=Bc (Ac)FA | Bc=eg facb | ag^fg =ecBG | (FA)cB (Ae)"^D.C."cA !segno!|]

%%sep 2 1 500

